svg/fluentui-system-icons/ic_fluent_local_language_16_regular.svg

<svg width="16" height="16" viewBox="0 0 16 16" fill="none" xmlns="http://www.w3.org/2000/svg">
<path d="M12.5001 1.99609C12.7763 1.99609 13.0001 2.21995 13.0001 2.49609V5.00232H13.5001C13.7762 5.00232 14.0001 5.22618 14.0001 5.50232C14.0001 5.77846 13.7762 6.00232 13.5001 6.00232H13.0001V10.4998C13.0001 10.7759 12.7763 10.9998 12.5001 10.9998C12.224 10.9998 12.0001 10.7759 12.0001 10.4998V2.49609C12.0001 2.21995 12.224 1.99609 12.5001 1.99609ZM7.50012 2.99611L10.0001 2.9961V4.24976C10.0001 4.66313 9.84249 4.95777 9.60068 5.15798C9.3486 5.3667 8.96988 5.49976 8.50274 5.49976C8.2266 5.49976 8.00274 5.72362 8.00274 5.99976C8.00274 6.27591 8.2266 6.49976 8.50274 6.49976C9.15059 6.49976 9.77056 6.31561 10.2384 5.92823C10.7166 5.53234 11.0001 4.95197 11.0001 4.24976V2.4961C11.0001 2.36349 10.9474 2.23632 10.8537 2.14255C10.7599 2.04878 10.6327 1.9961 10.5001 1.9961L7.50012 1.99611C7.22398 1.99611 7.00012 2.21996 7.00012 2.49611C7.00012 2.77225 7.22398 2.99611 7.50012 2.99611ZM6.45405 5.29914C6.37435 5.11718 6.19449 4.99966 5.99584 4.99975C5.79719 4.99983 5.61744 5.11751 5.53789 5.29954L2.04196 13.2996C1.93139 13.5526 2.04688 13.8474 2.29991 13.9579C2.55295 14.0685 2.84772 13.953 2.95829 13.7L4.13827 10.9997H7.83646C7.84402 10.9997 7.85154 10.9996 7.85902 10.9992L9.04213 13.7004C9.15292 13.9533 9.44779 14.0686 9.70073 13.9578C9.95367 13.847 10.0689 13.5521 9.95812 13.2992L6.45405 5.29914ZM7.42123 9.99975H4.57526L5.99659 6.7472L7.42123 9.99975Z" fill="#212121"/>
</svg>

<svg xmlns="http://www.w3.org/2000/svg" width="16" height="16"><path d="M12.5 1.996a.5.5 0 0 1 .5.5v2.506h.5a.5.5 0 0 1 0 1H13V10.5a.5.5 0 1 1-1 0V2.496a.5.5 0 0 1 .5-.5Zm-5 1H10V4.25c0 .413-.158.708-.4.908-.251.209-.63.342-1.097.342a.5.5 0 0 0 0 1c.648 0 1.268-.184 1.735-.572.479-.396.762-.976.762-1.678V2.496a.5.5 0 0 0-.5-.5h-3a.5.5 0 1 0 0 1ZM6.454 5.3a.5.5 0 0 0-.916 0l-3.496 8a.5.5 0 1 0 .916.401l1.18-2.7H7.86l1.183 2.7a.5.5 0 0 0 .916-.4l-3.504-8Zm.967 4.7H4.575l1.422-3.252L7.42 10Z"/></svg>
